X: 19781
T: Jenny's Welcome To Charlie
R: reel
M: 4/4
K: Ddorian
~D3 B AGED|Ec~c2 dEcE|~D3 B AGED|EGcG EDCE|
D2 AB AGED|Ec~c2 dEcd|eddc AGED|1 EGcG EDCE:|2 EGcG EDD2||
|:~f3 d efed|cA ~A2 cAGe|fedf eAcd|eaag edde|
~f3 d efed|c2Ac GAcd|ecdc AGED|EGcG EDD2:|
|:a2 ab age^f|~g3 a gedg|eaag abag|eaag egd (3e/f/g/|
~a3 b age^f|~g3 a gedB|GAcd ecdc|1 AGcG EDD (3e/f/g/:|2 AGcG EFGc|
|:Addc defd|AccB cdec|Addc ~d2 cd|eaag eddc|
~d3 e dcAB|~c3 d cAGE|D2 (3E^FG Addc|1 AcGF EFGc:|2 AcGE EDCE||

